X:1
T:Title
L:1/8
Q:1/4=120
M:4/4
K:G
V:1 treble nm="Church Organ, Staff"
V:1
 E2 c2 B3 A | G2 G2 F2 F2 | F2 F2 B2 B2 | ^c2 _B2 =B4 | B2 ^d2 e2 =d2 | dcBc B2 A2 | d2 BG E2 c2 | %7
w: By~W.~H.~Cummings * * *|||||||
 BAGA G4 | G2 G2 A2 G2 | G2 G2 A2 G2 | c2 c2 B2 B2 | d2 d2 d4 | e2 e2 e2 d2 | c2 c2 c2 B2 | %14
w: |||||||
 e2 ^de f2 e2 | e2 d2 c2 B2 | c2 dc B2 A2 | G8 |] %18
w: ||||

